Origami/64x64/apps/scilab.svg

<svg width="64" height="64" version="1" xmlns="http://www.w3.org/2000/svg">
 <path d="m4.0545956 32.001976c-0.011739 0.334698-0.050778 0.662275-0.050778 0.999932-5e-7 15.510943 12.487148 27.998092 27.998091 27.998092s27.998092-12.487149 27.998092-27.998092c0-0.337657-0.03904-0.665234-0.05078-0.999932-0.527964 15.040975-12.775129 26.99816-27.948095 26.99816-15.173366 0-27.420131-11.957185-27.948095-26.99816z" style="opacity:.2"/>
 <rect transform="matrix(0,-1,-1,0,0,0)" x="-60" y="-60" width="55.996" height="55.996" rx="27.998" ry="27.998" style="fill:#e74c3c"/>
 <path d="m7.9997267 33.734113c0-12.125573 6.2705723-18.735994 9.9393223-18.735994 3.66895 0 4.060951 1.86938 4.060951 4.845637 0 5.777206-7 3.704852-7 14.546713 0 3.590955 1.980555 7.60765 6.075836 7.60765 3.285776 0 4.494293-3.493731 6.16018-10.503253 2.763811-10.537882 5.561621-18.49274 15.002977-18.49274 9.173375 0 13.757063 7.718474 13.757063 19.844648 0 12.125774-7.102116 20.144293-10.771066 20.144293-3.66875 0-5.22499-1.463539-5.22499-4.439897 0-5.777205 8.324178-4.848492 8.324178-15.690153 0-3.590955-1.573732-8.879795-5.668813-8.879795-3.285776 0-4.447097 0.230225-6.46256 7.914461-1.095925 8.209441-3.703747 21.104317-13.681067 21.104317-9.172775 0-14.513011-7.139513-14.513011-19.264687z" style="opacity:.2"/>
 <path d="m7.9997267 32.735994c0-12.125573 6.2705723-18.735994 9.9393223-18.735994 3.66895 0 4.060951 1.86938 4.060951 4.845637 0 5.777206-7 3.704852-7 14.546713 0 3.590955 1.980555 7.60765 6.075836 7.60765 3.285776 0 4.494293-3.493731 6.16018-10.503253 2.763811-10.537882 5.561621-18.49274 15.002977-18.49274 9.173375 0 13.757063 7.718474 13.757063 19.844648 0 12.125774-7.102116 20.144293-10.771066 20.144293-3.66875 0-5.22499-1.463539-5.22499-4.439897 0-5.777205 8.324178-4.848492 8.324178-15.690153 0-3.590955-1.573732-8.879795-5.668813-8.879795-3.285776 0-4.447097 0.230225-6.46256 7.914461-1.095925 8.209441-3.703747 21.104317-13.681067 21.104317-9.172775 0-14.513011-7.139513-14.513011-19.264687z" style="fill:#ffffff"/>
 <path d="m31.998047 4.0039062c-15.510943 0-27.998047 12.487105-27.998047 27.998047 0 0.113548 0.0112849 0.22404 0.0175781 0.335938 0.3515192-15.20072 12.692238-27.333985 27.980469-27.333985 15.28693 0 27.628891 12.131174 27.982422 27.330078 0.006256-0.11059 0.015625-0.219822 0.015625-0.332031 0-15.510942-12.487104-27.998047-27.998047-27.998047z" style="fill:#ffffff;opacity:.2"/>
</svg>

<svg xmlns="http://www.w3.org/2000/svg" width="64" height="64" version="1">
 <path style="opacity:0.2" d="m 4.0545956,32.001976 c -0.011739,0.334698 -0.050778,0.662275 -0.050778,0.999932 C 4.0038171,48.512851 16.490966,61 32.001909,61 47.512852,61 60.000001,48.512851 60.000001,33.001908 c 0,-0.337657 -0.03904,-0.665234 -0.05078,-0.999932 -0.527964,15.040975 -12.775129,26.99816 -27.948095,26.99816 -15.173366,0 -27.4201313,-11.957185 -27.9480953,-26.99816 z"/>
 <rect style="fill:#e74c3c" width="55.996" height="55.996" x="-60" y="-60" rx="27.998" ry="27.998" transform="matrix(0,-1,-1,0,0,0)"/>
 <path style="opacity:0.2" d="m 7.9997267,33.734113 c 0,-12.125573 6.2705723,-18.735994 9.9393223,-18.735994 3.66895,0 4.060951,1.86938 4.060951,4.845637 0,5.777206 -7,3.704852 -7,14.546713 0,3.590955 1.980555,7.60765 6.075836,7.60765 3.285776,0 4.494293,-3.493731 6.16018,-10.503253 2.763811,-10.537882 5.561621,-18.49274 15.002977,-18.49274 9.173375,0 13.757063,7.718474 13.757063,19.844648 0,12.125774 -7.102116,20.144293 -10.771066,20.144293 C 41.55624,52.991067 40,51.527528 40,48.55117 c 0,-5.777205 8.324178,-4.848492 8.324178,-15.690153 0,-3.590955 -1.573732,-8.879795 -5.668813,-8.879795 -3.285776,0 -4.447097,0.230225 -6.46256,7.914461 C 35.09688,40.105124 32.489058,53 22.511738,53 13.338963,53 7.9987268,45.860487 7.9987268,33.735313 Z"/>
 <path style="fill:#ffffff" d="M 7.9997267,32.735994 C 7.9997267,20.610421 14.270299,14 17.939049,14 21.607999,14 22,15.86938 22,18.845637 22,24.622843 15,22.550489 15,33.39235 15,36.983305 16.980555,41 21.075836,41 c 3.285776,0 4.494293,-3.493731 6.16018,-10.503253 2.763811,-10.537882 5.561621,-18.49274 15.002977,-18.49274 9.173375,0 13.757063,7.718474 13.757063,19.844648 0,12.125774 -7.102116,20.144293 -10.771066,20.144293 -3.66875,0 -5.22499,-1.463539 -5.22499,-4.439897 0,-5.777205 8.324178,-4.848492 8.324178,-15.690153 0,-3.590955 -1.573732,-8.879795 -5.668813,-8.879795 -3.285776,0 -4.447097,0.230225 -6.46256,7.914461 -1.095925,8.209441 -3.703747,21.104317 -13.681067,21.104317 -9.172775,0 -14.5130112,-7.139513 -14.5130112,-19.264687 z"/>
 <path style="opacity:0.2;fill:#ffffff" d="M 31.998047 4.0039062 C 16.487104 4.0039062 4 16.491011 4 32.001953 C 4 32.115501 4.0112849 32.225993 4.0175781 32.337891 C 4.3690973 17.137171 16.709816 5.0039062 31.998047 5.0039062 C 47.284977 5.0039062 59.626938 17.13508 59.980469 32.333984 C 59.986725 32.223394 59.996094 32.114162 59.996094 32.001953 C 59.996094 16.491011 47.50899 4.0039062 31.998047 4.0039062 z"/>
</svg>
